X:1
T:All Hail the Power
T:All Hail the Power
T:Scott Werdebaugh, 1990
T:Edward Perronet, 1779 alt.
T:© 1990 Scott Werdebaugh &amp; New Heart Music - Copy &amp; use freely for Christian worship or devotions. All other rights reserved.
T:© 1990 Scott Werdebaugh &amp; New Heart Music - Copy &amp; use freely for Christian worship or devotions. All other rights reserved.
C:Scott Werdebaugh, 1990
Z:© 1990 Scott Werdebaugh & New Heart Music - Copy & use freely for Christian
Z:worship or devotions. All other rights reserved.
%%score ( 1 2 ) ( 3 4 )
L:1/8
Q:1/4=108
M:3/4
K:Bb
V:1 treble 
V:2 treble 
V:3 bass 
V:4 bass 
V:1
"^Majestic" [DF]2 | [DF][B,D] [DF]2 [FB]2 | [EB][EG] [EB]2 ([FA][EG]) | [DF][B,D] [DF]2 [B,D]2 | %4
w: 1.~All|hail the power of|Je- sus’ name! Let *|an- gels pros- trate|
w: 2.~Ye|chos- en seed of|Is- rael’s race, Ye *|ran- somed from the|
w: 3.~Let|ev- ery kin- dred,|ev- ery tribe On *|this ter- res- trial|
w: 4.~O|that with yon- der|sa- cred throng We *|at His feet may|
 [A,C]4 [CF]2 | [DF][B,D] [DF]2 [FB]2 | [EB][EG] [EB]2 [Ec]2 | [Fd][DB] [EB]2 c2 | %8
w: fall; Bring|forth the roy- al|di- a- dem, And|crown Him Lord of|
w: fall; Hail|Him who saves you|by His grace, And|crown Him Lord of|
w: ball, To|Him all ma- jes-|ty a- scribe, And|crown Him Lord of|
w: fall! We’ll|join the ev- er-|last- ing song, And|crown Him Lord of|
 [DB]4"^Refrain" [EB][Ec] || [Fd]2 [FB]2 [EG][EB] | [EG]2 [DF]2 [DF][DB] | [Fd]2 [DB]2 [Fd][DB] | %12
w: all! We will|crown Him; we will|crown Him; We will|crown Him Lord of|
w: all! We will|crown Him; we will|crown Him; We will|crown Him Lord of|
w: all! We will|crown Him; we will|crown Him; We will|crown Him Lord of|
w: all! We will|crown Him; we will|crown Him; We will|crown Him Lord of|
 c4 [EB][Ec] | [Fd]2 [FB]2 [EG][EB] | [EG]2 [DF]2 [DB][Ec] | [Fd][Ge] [Fd]2 c2 | !fermata![DB]4 |] %17
w: all! Yes, we’ll|crown Him; we will|crown Him; We will|crown Him Lord of|all!|
w: all! Yes, we’ll|crown Him; we will|crown Him; We will|crown Him Lord of|all!|
w: all! Yes, we’ll|crown Him; we will|crown Him; We will|crown Him Lord of|all!|
w: all! Yes, we’ll|crown Him; we will|crown Him; We will|crown Him Lord of|all!|
V:2
 x2 | x6 | x6 | x6 | x6 | x6 | x6 | x4 (FE) | x6 || x6 | x6 | x6 | (F2 E2) x2 | x6 | x6 | x4 (FE) | %16
 x4 |] %17
V:3
 [B,,B,]2 | [B,,B,][B,,F,] B,2 [D,B,]2 | [E,G,][G,B,] [E,G,]2 [E,B,]2 | %3
 [B,,B,][B,,F,] [B,,B,]2 [B,,F,]2 | [F,,F,]4 A,2 | [B,,B,][B,,F,] B,2 [D,B,]2 | %6
 [E,G,][G,B,] [E,G,]2 [F,A,]2 | [B,,B,][B,,F,] [E,G,]2 [F,A,]2 | [B,,F,]4 [B,,G,][F,,A,] || %9
 B,2 [D,B,]2 [E,B,][E,G,] | [E,B,]2 [B,,B,]2 [F,B,][B,,F,] | [D,B,]2 [B,,B,]2 [B,,F,][D,B,] | %12
 [F,A,]4 [G,B,][A,C] | (DC) [D,B,]2 [E,B,][E,G,] | [E,B,]2 [B,,B,]2 [B,,F,][C,F,] | %15
 [D,B,][E,B,] [F,B,]2 [F,A,]2 | [B,,F,]4 |] %17
V:4
 x2 | x2 (B,,C,) x2 | x6 | x6 | x4 (F,E,) | x2 (B,,C,) x2 | x6 | x6 | x6 || (B,,C,) x4 | x6 | x6 | %12
 x6 | B,2 x4 | x6 | x6 | x4 |] %17

